X:1
T:The Cleansing Blood
T:Oscar A. Miller
T:The Cleansing Blood
T:Public Domain
T:Public Domain
T:Public Domain
C:Oscar A. Miller
Z:Public Domain
%%score ( 1 2 ) ( 3 4 )
L:1/8
M:4/4
K:D
V:1 treble 
V:2 treble 
V:3 bass 
V:4 bass 
V:1
 D[DE] | [DF][DF][DF][DF] [DF][DF][CE][DF] | [EG][EG][EG][DG] [CG]2 [DF][EG] | %3
w: 1.~When they|ci- fied my Sav- ior On the cross|of Cal- va- ry, There a bless-|
w: 2.~Now I|the blood of Je- sus, And He’s with|me all the way; I am hap-|
w: 3.~He will|me with white rai- ment When my pil-|grim- age is past; And pre- sent|
 [FA][FA][FA][FA] [GB][FA][Fd][DF] | [DF][CE][CE][CE] [CE]2 D[DE] | %5
w: èd fount was o- pened For my cleans-|ing, full and free; And my sins|
w: py and re- joic- ing In His fa-|vor ev- ery day; In the bur-|
w: me pure and spot- less With the sanc-|ti- fied at last; I will sing|
 [DF][DF][DF][DF] [DF][DF][CE][DF] | [EG][EG][EG][DG] [CG]2 [DF][EG] | [FA][Ad][Gd][GB] | %8
w: all for- giv- en Just by faith in|His shed blood; They are washed a-|way for- ev- er|
w: and the tri- al, There is none so|kind as He; My Re- deem- er|is my kins- man,|
w: praise and glo- ry Un- to all e-|ter- ni- ty, Tell- ing ev- er-|more the sto- ry|
 [FA]<[DF] D[DE] | [DF]2 [CE]2 D3 ||"^Refrain" [FA] | [Fd]2 [Gd]2 (F^EF)[FA] | %12
w: By the crim- son|It cleans- eth|It|cleans- eth me! * * The|
w: And His blood saves||||
w: How His blood saved||||
 [GB]2 [GB]2 [FA]3 [FA] | [Fd][Gd][Ad][FA] [GB][Gd][Gd][Gd] | [Gc]2 [Gc]2 [Gc]3 [Gc] | %15
w: cious blood of Je-|sus Full- y cleans- eth me. It cleans-|eth me! It cleans-|
w: |||
w: |||
 [Fd]2 [Gd]2 (F^EF)[FA] | [GB]2 [GB]2 [FA]3 [FA] | [Fd][Gd][Ad][FA] [GB][Gd][^Ed][Ed] | %18
w: eth me! The * * pre-|blood of Je- sus|Full- y cleans- eth me. * * *|
w: |||
w: |||
 [Fd]2 (EG) [Fd]2 |] %19
w: |
w: |
w: |
V:2
 D x | x8 | x8 | x8 | x6 D x | x8 | x8 | x4 | x2 D x | x4 D3 || x | x4 d3 x | x8 | x8 | x8 | %15
w: cru-||||were||||flood.|me!||pre-||||
w: plead||||den||||me.|||||||
w: robe||||His||||me.|||||||
 x4 d3 x | x8 | x8 | x2 c2 x2 |] %19
w: cious||||
w: ||||
w: ||||
V:3
 [D,F,][D,G,] | [D,A,][D,A,][D,B,][D,B,] [D,A,][D,A,][G,A,][F,A,] | %2
w: ~ ~|~ ~ ~ ~ ~ ~ ~ ~|
 [E,A,][D,A,][C,A,][B,,A,] [A,,A,]2 [D,A,][D,A,] | [D,D][D,D][D,D][D,D] [D,D][D,D][D,A,][D,A,] | %4
w: ~ ~ ~ ~ ~ ~ ~|~ ~ ~ ~ ~ ~ ~ ~|
 [A,,A,][A,,A,][A,,A,][A,,A,] (A,G,)[F,A,][E,A,] | %5
w: ~ ~ ~ ~ ~ * ~ ~|
 [D,A,][D,A,][D,B,][D,B,] [D,A,][D,A,][G,A,][F,A,] | %6
w: ~ ~ ~ ~ ~ ~ ~ ~|
 [E,A,][D,A,][C,A,][B,,A,] [A,,A,]2 [D,A,][D,A,] | [D,D][F,D][G,B,][G,D] | %8
w: ~ ~ ~ ~ ~ ~ ~|~ ~ ~ ~|
 [D,D]<[D,A,] [B,,^G,][B,,G,] | [A,,A,]2 (A,G,) [D,F,]3 || [D,D] | %11
w: ~ ~ ~ ~|~ ~ * ~|~|
 [D,A,]2 [D,A,]2 [D,A,][D,^G,][D,A,][D,D] | ([G,,G,][A,,A,])([B,,B,][C,C]) [D,D]3 [D,D] | %13
w: ~ oh, yes, ~ ~ ~|~ * ~ * ~ ~|
 [D,A,][E,A,][F,D][D,D] [G,D][G,B,][G,B,][G,B,] | A,A,A,B, A,[G,A,][F,A,][E,A,] | %15
w: ~ ~ Yes, the pre- cious blood of|Je- sus ful- ly cleans- eth, cleans- eth|
 [D,A,]2 [D,B,]2 [D,A,]^G,[D,A,][D,D] | ([G,,G,][A,,A,])([B,,B,][C,C]) [D,D]3 [D,D] | %17
w: ||
 [D,A,][E,A,][F,D][D,D] [G,D][G,B,][^G,B,][G,B,] | A,2 [A,,A,]2 [D,A,]2 |] %19
w: ||
V:4
 x2 | x8 | x8 | x8 | x4 A,2 x2 | x8 | x8 | x4 | x4 | x2 A,,2 x3 || x | x8 | D2 D2 x4 | x8 | %14
w: ||||~|||||~|||~ ~||
 A,A,A,B, A, x3 | x8 | D2 D2 x4 | x8 | A,2 x4 |] %19
w: me! * * * *|||||

